X: 22876
T: Lark On The Strand, The
R: jig
M: 6/8
K: Adorian
|:ABA AGA|BGE GAB|ABA GBd|edg edB|
ABA AGA|BGE G2D|GBA G2B|dBG BdB:|
GBd g2d|gba gdB|GBd g2d|edg edB|
GBd g2d|gba gab|aba age|edg edB:|

